X:1
T:The Cruel Mother
M:6/8
L:1/8
K:G
 D| G2 G AGF| G2 B c3| d2 e dBA| G2- E D2 D| F2 G D2 D/2D/2|D-C B, C2 C|\
 D2 B/2B/2 AGF| G2- E D2 D| F2 G D2 D/2D/2|D-C B, C2 C| D2 B/2B/2 AGF|\
 G2- E D2||
